X:42
T:Dunmore Lasses, The
T:Road to Knock, The
T:Morrison's
R:reel
I:speed 350
E:7.5
M:C|
K:Em
~E3F ~G3A|Be~e2 Be~e2|~E3F G2BG|A2BA GEFD|\
~E3F ~G3A|Beed ~e3f|(3.g.f.e fd eBdB|AcBA GEFD:|*
g2eg fedc|Be~e2 Be~e2|g2eg fedB|AcBA GE~E2|\
g2eg fedc|Beed ~e3f|(3.g.f.e fd eBdB|AcBA GEE2:|**
<end>
<start>
